X: 10102
T: SIEGAL'S REEL
C: Bob McQuillen 11 May 93
B: Bob's Note Book 10 #102
%R: reel
Z: 2020 John Chambers <jc:trillian.mit.edu>
N: Both strains have a final repeat but no initial repeat; fixed.
M: C
L: 1/8
K: D	% and G
|:fage fdAd | BGBd AFDF | GBAG FAdf | gBed ceag |\
| fage fdAd | BGBd AFDF | GBAG FAdB | Acec d4 :|
|:GBdg e2ge | dedB cAFD | GBdg e2ge | fed^c d=cBA |\
| GBdg eceg | dedB cAFD | G2Bd c2de | fgaf g4 :|
%%begintext align
%% Here's a tune for Larry Siegal of
%% Westmoreland, NH. Larry's an excellent piano player and he's
%% been awfully nice to me. He even wrote me a real fine jig a while
%% ago that I like very much - it's a good tune, Larry, and thanks a
%% lot - I hope this tune pleases you as much as yours did me!
%%endtext

%%sep 1 1 500

%%sep 1 1 500

